!!!COM: Bach, Johann Sebastian
!!!OTL: Ermuntre dich, mein schwacher Geist
!!!ONM: No. 9
!!!OCL: Erk
!!!YOE: Riemenschneider, Albert
!!!OPR: 371 Harmonized Chorales and 69 Chorale Melodies with Figured Bass
!!!OPT: Bach Chorale Harmonizations
**kern	**kern	**kern	**kern
! bass	! tenor	! alto	! soprano
*M4/4	*M4/4	*M4/4	*M4/4
*G:	*G:	*G:	*G:
8G	4B	4d	4g
8F#	.	.	.
=1	=1	=1	=1
4E	8B	4e	4g
.	[8c	.	.
4D	8c]	4f#	4a
.	8d	.	.
4G	8B	8d	8b
.	8A	8e	8cc#
8F#	4A	4f#	4dd
8G	.	.	.
=2	=2	=2	=2
4A	4A	8e	4dd
.	.	8f#	.
4AA	4A	4g	4cc#
4D;	4A;	4f#;	4dd;
4D#	8B	4f#	4b
.	8A	.	.
=3	=3	=3	=3
8E	8G	4e	4ccn
8F#	8A	.	.
8G	8B	8d	4b
8C	8c	8e	.
8c	4dn	4f#	4a
8B	.	.	.
8A	4d	[4g	4b
8G	.	.	.
=4	=4	=4	=4
4d	4.d	4g]	2a
4D	.	4f#	.
.	8c	.	.
4G;	4B;	4d;	4g;
!! Repeat from the beginning.
8G	4B	4d	4g
8F#	.	.	.
=1	=1	=1	=1
4E	8B	4e	4g
.	[8c	.	.
4D	8c]	4f#	4a
.	8d	.	.
4G	8B	8d	8b
.	8A	8e	8cc#
8F#	4A	4f#	4dd
8G	.	.	.
=2	=2	=2	=2
4A	4A	8e	4dd
.	.	8f#	.
4AA	4A	4g	4cc#
4D;	4A;	4f#;	4dd;
4D#	8B	4f#	4b
.	8A	.	.
=3	=3	=3	=3
8E	8G	4e	4ccn
8F#	8A	.	.
8G	8B	8d	4b
8C	8c	8e	.
8c	4dn	4f#	4a
8B	.	.	.
8A	4d	[4g	4b
8G	.	.	.
=4	=4	=4	=4
4d	4.d	4g]	2a
4D	.	4f#	.
.	8c	.	.
4G;	4B;	4d;	4g;
!! Continuing.
4D	8d	8f#	4a
.	8e	8g	.
=5	=5	=5	=5
8d	8f#	[4a	4a
8c	8e	.	.
4B	4d	8a]	4b
.	.	8g#	.
4A	4e	8a	4cc
.	.	8g#	.
4D#	4f#	4a	4cc
=6	=6	=6	=6
4E	4B	4a	8b
.	.	.	8a
4E	8e	4g#	4b
.	8d	.	.
4AA;	4c;	4e;	4a;
8E	8Gn	8e	4b
8F#	8A	8d#	.
=7	=7	=7	=7
4G	8B	4e	4b
.	8c	.	.
4G#	8d	4e	4b
.	8e	.	.
4A	4c	8e	8cc
.	.	8f#	8dd
4A#	4c#	8g	4ee
.	.	8f#	.
=8	=8	=8	=8
4B	4B	8f#	4ee
.	.	8g	.
4BB	4B	4a	4dd#
4E;	4B;	4g;	4ee;
8d	4d	4a	4ff#
8c	.	.	.
=9	=9	=9	=9
8B	4d	8g	4gg
8A	.	8a	.
8G	4g	[4b	4b
8F#	.	.	.
8E	8G	8b]	4cc
8F#	8A	[8a	.
8G	4B	8a]	4b
8E	.	8g	.
=10	=10	=10	=10
8C#	8e	2g	2a
8BB	8d	.	.
8C#	8e	.	.
8AA	8c#	.	.
4D;	4d;	4f#;	4a;
4BB	[4d	8g	4dd
.	.	8f#	.
=11	=11	=11	=11
4C	8d]	4e	4ee
.	8c	.	.
4D	8c	4f#	4dd
.	8B	.	.
8E	8B	8g	4cc
8F#	8A	8a	.
4G	4G	4d	8b
.	.	.	8cc
=12	=12	=12	=12
4C	8G	4e	2a
.	16F#	.	.
.	16E	.	.
4D	4F#	4d	.
4GG;	4B;	4d;	4g;
==	==	==	==
*-	*-	*-	*-
!!!CDT: 1685/3//-1750/7/28
!!!OCY: Deutschland
!!!AGN: chorale
!!!AST: Baroque
!!!AIN: vox
!!!YOY: 1941
!!!PPP: New York; London
!!!PPR: G. Schirmer
!!!ENC: David Huron
!!!EED: David Huron
!!!YEN: United States of America
!!!YER: 1992
!!!YEC: Copyright 1992 David Huron
!!!YEM: Rights to all derivative electronic formats reserved.
!!!YER: March 20, 1996
!!!AMT: simple quadruple
!!!EEV: 1.1
